!!!!SEGMENT: pl-kk--kk-i-7--080_gorczycki-grzegorz-gerwazy--ave-filia-dei-patris.krn
!!!cenid: 16xx:919
!!!COM: Gorczycki, Grzegorz Gerwazy
!!!COM-rismid: pe30009207
!!!CDT: ~1666-1734/04/30
!!!CNT: Polish
!!!OTL: Ave filia Dei patris
!!!PDT:
!!!AGN: Sacred
!!!SMS-siglum: PL-Kk
!!!SMS-shelfmark: Kk.I.7
!!!SMS-shelfwork: 080 W
!!!SMS-variant:
!!!SMS-altvar:
!!!NIFC-rismid: 300258157
!!!URL-scan: http://repozytorium.nifc.pl/skany/pl-kk-nut--i-7
!!!ONB-nifc: UWAGA: C (skan 0069-0070, s.131-132), A (brak), T(0232-0233, s.127-128), B(0319, s.124-125). Następny utwór: Dignare me laudare te
**kern	**text	**kern	**text	**kern	**kern	**text
*part4	*part4	*part3	*part3	*part2	*part1	*part1
*staff4	*staff4	*staff3	*staff3	*staff2	*staff1	*staff1
*Ibass	*	*Itenor	*	*Ialto	*Itenor	*
*I"BASSVS.	*	*I"Tenore 2do.	*	*I"ALTVS.	*I"Tenore 1mo.	*
*I'B	*	*I'T 2	*	*I'A	*I'T 1	*
*clefF4	*	*clefC4	*	*clefC3	*clefC4	*
*k[b-e-]	*	*k[b-e-]	*	*k[b-e-]	*k[b-e-]	*
*g:	*	*g:	*	*g:	*g:	*
*M2/1	*	*M2/1	*	*M2/1	*M2/1	*
*met(c|)	*	*met(c|)	*	*met(c|)	*met(c|)	*
=1-	=1-	=1-	=1-	=1-	=1-	=1-
!LO:TX:a:t=P:problem:w źródle znaki przykluczowe B- E- BB-	!	!	!	!	!	!
!	!	!	!	!	!LO:TX:t=P:problem:A wielkie, przed kluczem	!
!LO:TX:a:i:t=De B. V. Maria.	!	!LO:TX:a:i:t=De B V. Maria.	!	!LO:TX:t=P:problem:w źródle brak głosu Altus	!LO:TX:a:i:t=De B. V. Maria.	!
00r	.	00r	.	0ryy	1G	A-
.	.	.	.	.	2C/	-ve
*	*	*	*	*	*2\right	*
!	!	!	!	!	!LO:TX:t=P:problem:kreska pseudotaktowa	!
.	.	.	.	.	[<2B-\	Fi-
=2-	=2-	=2-	=2-	=2-	=2-	=2-
!	!	!	!	!	!LO:N:xstem:cue	!
.	.	.	.	0ryy	4B-]	.
.	.	.	.	.	4B-\	-li-
!	!	!	!	!	!LO:TX:t=P:problem:kreska pseudotaktowa	!
.	.	.	.	.	2A\	-a
.	.	.	.	.	2G/	De-
!	!	!	!	!	!LO:TX:t=P:problem:kreska pseudotaktowa	!
.	.	.	.	.	2F#X/	-i
=3-	=3-	=3-	=3-	=3-	=3-	=3-
00r	.	00r	.	0ryy	2.G/	Pa-
!	!	!	!	!	!LO:TX:t=P:problem:kreska pseudotaktowa	!
.	.	.	.	.	4Fn/	.
.	.	.	.	.	4G/	.
.	.	.	.	.	4A/	.
.	.	.	.	.	2B-\	.
=4-	=4-	=4-	=4-	=4-	=4-	=4-
.	.	.	.	0ryy	2F#X/	.
!	!	!	!	!	!LO:TX:t=P:problem:kreska pseudotaktowa	!
.	.	.	.	.	2G/	.
.	.	.	.	.	4C/	.
.	.	.	.	.	4D/	.
.	.	.	.	.	4E-/	.
.	.	.	.	.	4F#/	.
=5-	=5-	=5-	=5-	=5-	=5-	=5-
!LO:TX:t=P:problem:kreska pseudotaktowa	!	!	!	!	!	!
0r	.	00rc	.	0ryy	4G/	.
.	.	.	.	.	4A/	.
.	.	.	.	.	4B-/	.
!	!	!	!	!	!LO:TX:t=P:problem:kreska pseudotaktowa	!
.	.	.	.	.	4G/	.
.	.	.	.	.	2A/	.
.	.	.	.	.	4B-/	.
.	.	.	.	.	8A/L	.
!	!	!	!	!	!LO:TX:t=P:problem:kreska pseudotaktowa	!
.	.	.	.	.	8G/J	.
=6-	=6-	=6-	=6-	=6-	=6-	=6-
1D	A-	.	.	0ryy	1A	.
2GG/	-ve	.	.	.	2G,/	-tris
*2\right	*	*	*	*	*	*
[<2E-X\	Fi-	.	.	.	4G/	De-
!	!	!	!	!	!LO:TX:t=P:problem:kreska pseudotaktowa	!
.	.	.	.	.	4A/	-i
=7-	=7-	=7-	=7-	=7-	=7-	=7-
!	!	!LO:TX:t=P:problem:kreska pseudotaktowa	!	!	!	!
!LO:N:xstem:cue	!	!	!	!	!	!
4E-]	.	0r	.	0ryy	4B-\	Pa-
4E-\	-li-	.	.	.	4c\	.
!LO:TX:t=P:problem:kreska pseudotaktowa	!	!	!	!	!	!
2D\	-a	.	.	.	4d\	.
!	!	!	!	!	!LO:TX:t=P:problem:kreska pseudotaktowa	!
!	!	!	!	!	!LO:SIC:v:t=custos e-	!
.	.	.	.	.	4B-\	.
!	!	!	!	!	!LO:LB:g=original	!
2C/	De-	.	.	.	2e-\	.
!LO:TX:t=P:problem:kreska pseudotaktowa	!	!	!	!	!	!
2BBn/	-i	.	.	.	2.d\	.
=8-	=8-	=8-	=8-	=8-	=8-	=8-
1C	Pa-	1G	A-	0ryy	.	.
.	.	.	.	.	8c\L	.
.	.	.	.	.	8B-\J	.
.	.	.	.	.	4c\	.
!	!	!	!	!	!LO:TX:t=P:problem:kreska pseudotaktowa	!
.	.	.	.	.	4B-\	.
2.D/	.	2C/	-ve	.	2A/	.
*	*	*2\right	*	*	*	*
.	.	2.B-\	Fi-	.	2G/	.
!LO:TX:t=P:problem:kreska pseudotaktowa	!	!	!	!	!	!
4C/	.	.	.	.	.	.
=9-	=9-	=9-	=9-	=9-	=9-	=9-
4D\	.	.	.	0ryy	4Fny/	.
4E-\	.	4B-\	-li-	.	4G/	.
!LO:TX:t=P:problem:kreska pseudotaktowa	!	!LO:TX:t=P:problem:kreska pseudotaktowa	!	!	!	!
2F\	.	2A\	-a	.	4A/	.
!	!	!	!	!	!LO:TX:t=P:problem:kreska pseudotaktowa	!
.	.	.	.	.	4B-/	.
2C/	.	2G/	De-	.	4c\	.
.	.	.	.	.	4B-\	.
!	!	!LO:TX:t=P:problem:kreska pseudotaktowa	!	!	!	!
2D,/	-tris	2F#X/	-i	.	2.B-\	.
=10-	=10-	=10-	=10-	=10-	=10-	=10-
1E-X	De-	2.G/	Pa-	0ryy	.	.
.	.	.	.	.	4A/	.
!	!	!	!	!	!LO:TX:t=P:problem:kreska pseudotaktowa	!
.	.	.	.	.	2G/	.
!	!	!LO:TX:t=P:problem:kreska pseudotaktowa	!	!	!	!
.	.	4A/	.	.	.	.
!LO:TX:t=P:problem:kreska pseudotaktowa	!	!	!	!	!	!
1D	.	4B-\	.	.	2F#X,/	-tris
.	.	8A\L	.	.	.	.
.	.	8G\J	.	.	.	.
!	!	!LO:TX:t=P:problem:kreska pseudotaktowa	!	!	!	!
.	.	2A/	.	.	2d\	a-
=11-	=11-	=11-	=11-	=11-	=11-	=11-
2E-X,\	-i	2G/	-tris	1ryy	2G/	-ve
!LO:TX:t=P:problem:kreska pseudotaktowa	!	!	!	!	!LO:TX:t=P:problem:kreska pseudotaktowa	!
2C/	Pa-	2.c\	Fi-	.	2e-X\	Fi-
!	!	!	!	!	!LO:N:xstem:cue	!
!LO:TX:t=P:problem:kreska pseudotaktowa	!	!	!	!	!	!
1GG,	-tris	.	.	1ryy	4e-	.
.	.	4c\	-li-	.	4e-\	-li-
.	.	2B-\	-a	.	2d\	-a
=12-	=12-	=12-	=12-	=12-	=12-	=12-
00r	.	2e-X\	De-	0ryy	2c\	De-
*	*	*	*	*	*2\left	*
!	!	!LO:TX:t=P:problem:kreska pseudotaktowa	!	!	!LO:TX:t=P:problem:kreska pseudotaktowa	!
.	.	2d\	-i	.	2Bn\	-i
*	*	*	*	*	*2\right	*
.	.	2.c\	Pa-	.	4c\	Pa-
.	.	.	.	.	4d\	.
.	.	.	.	.	4e-X\	.
.	.	8B-\L	.	.	8d\L	.
!	!	!LO:TX:t=P:problem:kreska pseudotaktowa	!	!	!LO:TX:t=P:problem:kreska pseudotaktowa	!
.	.	8A\J	.	.	8c\J	.
=13-	=13-	=13-	=13-	=13-	=13-	=13-
.	.	4G/	.	0ryy	4B-y\	.
.	.	4A/	.	.	4c\	.
.	.	4B-/	.	.	4d\	.
.	.	8A/L	.	.	8c\L	.
!	!	!LO:TX:t=P:problem:kreska pseudotaktowa	!	!	!	!
.	.	8G/J	.	.	8B-\J	.
.	.	4Fny/	.	.	4A\	.
.	.	4G/	.	.	4B-\	.
.	.	4A/	.	.	1c\	.
!	!	!LO:TX:t=P:problem:kreska pseudotaktowa	!	!	!	!
.	.	4B-/	.	.	.	.
=14-	=14-	=14-	=14-	=14-	=14-	=14-
!LO:TX:t=P:problem:kreska pseudotaktowa	!	!	!	!	!	!
!LO:SIC:v:custos G	!	!	!	!	!	!
0r	.	2c\	.	1ryy	.	.
!	!	!	!	!	!LO:TX:t=P:problem:kreska pseudotaktowa	!
!	!	!	!	!	!LO:SIC:custos c:v	!
.	.	2B-\	.	.	2d\	.
!	!	!	!	!	!LO:LB:g=original	!
.	.	1A	-tris	1ryy	2.c\	.
.	.	.	.	.	4d\	.
!LO:LB:g=original	!	!	!	!	!	!
=15-	=15-	=15-	=15-	=15-	=15-	=15-
!LO:TX:t=P:problem:kreska pseudotaktowa	!	!LO:TX:t=P:problem:kreska pseudotaktowa	!	!	!	!
1G	a-	1G	.	0ryy	4e-X\	.
.	.	.	.	.	8d\L	.
.	.	.	.	.	8c\J	.
.	.	.	.	.	4d\	.
!	!	!	!	!	!LO:TX:t=P:problem:kreska pseudotaktowa	!
.	.	.	.	.	4G/	.
!	!	!LO:LB:g=original	!	!	!	!
!	!	!LO:TX:t=P:problem:kreska pseudotaktowa	!	!	!	!
2D/	-ve	0r	.	.	2.A/	.
!LO:TX:t=P:problem:kreska pseudotaktowa	!	!	!	!	!	!
[<2B-\	Fi-	.	.	.	.	.
.	.	.	.	.	4G/	.
=16-	=16-	=16-	=16-	=16-	=16-	=16-
!LO:N:xstem:cue	!	!	!	!	!	!
4B-]	.	.	.	0ryy	2G/	.
4B-\	-li-	.	.	.	.	.
!LO:TX:t=P:problem:kreska pseudotaktowa	!	!	!	!	!LO:TX:t=P:problem:kreska pseudotaktowa	!
2A\	-a	.	.	.	2F#X/	-tris
2G\	De-	1d	a-	.	2B-\	De-
!LO:TX:t=P:problem:kreska pseudotaktowa	!	!	!	!	!	!
2F#X\	-i	.	.	.	2A,\	-i
=17-	=17-	=17-	=17-	=17-	=17-	=17-
2G\	Pa-	2G/	-ve	0ryy	(>2Bn\	Pa-
4C/	.	2.e-X\	Fi-	.	2c\)	.
!LO:TX:t=P:problem:kreska pseudotaktowa	!	!	!	!	!	!
4D/	.	.	.	.	.	.
4E-X\	.	.	.	.	2G/	-tris
4Fny\	.	4e-\	-li-	.	.	.
!	!	!LO:TX:t=P:problem:kreska pseudotaktowa	!	!	!LO:TX:t=P:problem:kreska pseudotaktowa	!
4G\	.	2d\	-a	.	2r	.
!LO:TX:t=P:problem:kreska pseudotaktowa	!	!	!	!	!	!
4F\	.	.	.	.	.	.
=18-	=18-	=18-	=18-	=18-	=18-	=18-
2E-X\	.	2c\	De-	0ryy	0r	.
!LO:TX:t=P:problem:kreska pseudotaktowa	!	!LO:TX:t=P:problem:kreska pseudotaktowa	!	!	!	!
2D\	.	2Bn\	-i	.	.	.
1C	.	2.c\	Pa-	.	.	.
.	.	4B-y\	.	.	.	.
=19-	=19-	=19-	=19-	=19-	=19-	=19-
!	!	!	!	!	!LO:TX:t=P:problem:kreska pseudotaktowa	!
2D,\	-tris	2A/	.	0ryy	1r	.
!LO:TX:t=P:problem:kreska pseudotaktowa	!	!	!	!	!	!
[<2G\	Fi-	4G/	.	.	.	.
!	!	!LO:TX:t=P:problem:kreska pseudotaktowa	!	!	!	!
.	.	4A/	.	.	.	.
!LO:N:xstem:cue	!	!	!	!	!	!
4G]	.	4B-\	.	.	1d	a-
4G\	-li-	4c\	.	.	.	.
!LO:TX:t=P:problem:kreska pseudotaktowa	!	!	!	!	!	!
2F\	-a	2d\	.	.	.	.
=20-	=20-	=20-	=20-	=20-	=20-	=20-
2E-X\	De-	2c\	.	0ryy	2G/	-ve
!LO:TX:t=P:problem:kreska pseudotaktowa	!	!LO:TX:t=P:problem:kreska pseudotaktowa	!	!	!LO:TX:t=P:problem:kreska pseudotaktowa	!
2D\	-i	2d\	.	.	2r	.
!	!	!LO:TX:t=P:problem:kreska pseudotaktowa	!	!	!	!
2C/	Pa-	1G	-tris	.	4.e-X\	Fi-
.	.	.	.	.	8e-\	-li-
!LO:TX:t=P:problem:kreska pseudotaktowa	!	!	!	!	!LO:TX:t=P:problem:kreska pseudotaktowa	!
2BBn/	.	.	.	.	2d\	-a
=21-	=21-	=21-	=21-	=21-	=21-	=21-
4C/	.	0r	.	0ryy	4c\	De-
4D/	.	.	.	.	8B-y\L	.
.	.	.	.	.	8A\J	.
4E-X/	.	.	.	.	4G/	.
!	!	!	!	!	!LO:TX:t=P:problem:kreska pseudotaktowa	!
8D/L	.	.	.	.	4A/	.
!LO:TX:t=P:problem:kreska pseudotaktowa	!	!	!	!	!	!
!LO:SIC:v:custos D	!	!	!	!	!	!
8C/J	.	.	.	.	.	.
!LO:LB:g=original	!	!	!	!	!	!
4D\	.	.	.	.	4B-\	.
4En\	.	.	.	.	8A\L	.
.	.	.	.	.	8G\J	.
4F\	.	.	.	.	4A\	.
!	!	!	!	!	!LO:TX:t=P:problem:kreska pseudotaktowa	!
8E\L	.	.	.	.	4B-\	.
!LO:TX:t=P:problem:kreska pseudotaktowa	!	!	!	!	!	!
8D\J	.	.	.	.	.	.
=22-	=22-	=22-	=22-	=22-	=22-	=22-
4E-y\	.	1r	.	0ryy	2c\	.
4F#X\	.	.	.	.	.	.
!	!	!	!	!	!LO:TX:t=P:problem:kreska pseudotaktowa	!
1G\	.	.	.	.	2B-\	-i
.	.	1d	a-	.	1A	Pa-
!LO:TX:t=P:problem:kreska pseudotaktowa	!	!	!	!	!	!
2F#X\	.	.	.	.	.	.
=23-	=23-	=23-	=23-	=23-	=23-	=23-
2G\	-tris.	2G/	-ve	0ryy	2G,/	-tris
!LO:TX:t=P:problem:kreska pseudotaktowa	!	!	!	!	!	!
2r	.	2.e-X\	Fi-	.	2.c\	Fi-
!LO:TX:t=P:problem:kreska pseudotaktowa	!	!	!	!	!	!
0r	.	.	.	.	.	.
.	.	4e-\	-li-	.	4c\	-li-
!	!	!LO:TX:t=P:problem:kreska pseudotaktowa	!	!	!LO:TX:t=P:problem:kreska pseudotaktowa	!
!	!	!	!	!	!LO:SIC:custos e-:v	!
.	.	2d\	-a	.	2Bn\	-a
!	!	!	!	!	!LO:LB:g=original	!
=24-	=24-	=24-	=24-	=24-	=24-	=24-
.	.	2c\	De-	0ryy	2e-\	De-
!	!	!LO:TX:t=P:problem:kreska pseudotaktowa	!	!	!LO:TX:t=P:problem:kreska pseudotaktowa	!
.	.	2Bn\	-i	.	2d\	-i
1C	A-	(>1c	Pa-	.	4c\	Pa-
.	.	.	.	.	8B-y\L	.
.	.	.	.	.	8A\J	.
.	.	.	.	.	4G/	.
!	!	!	!	!	!LO:TX:t=P:problem:kreska pseudotaktowa	!
.	.	.	.	.	4A/	.
=25-	=25-	=25-	=25-	=25-	=25-	=25-
2GG,/	-ve	1d)	.	0ryy	1B-	.
!LO:TX:t=P:problem:kreska pseudotaktowa	!	!	!	!	!	!
2G\	a-	.	.	.	.	.
!	!	!LO:TX:t=P:problem:kreska pseudotaktowa	!	!	!	!
2D,/	-ve	1d	-tris	.	2A\	.
2.B-\	Fi-	.	.	.	2.d\	.
=26-	=26-	=26-	=26-	=26-	=26-	=26-
!	!	!LO:TX:t=P:problem:kreska pseudotaktowa	!	!	!	!
!	!	!LO:TX:a:t=I.	!	!	!	!
.	.	1r	.	0ryy	.	.
4B-\	-li-	.	.	.	4d\	.
!LO:TX:t=P:problem:kreska pseudotaktowa	!	!	!	!	!LO:TX:t=P:problem:kreska pseudotaktowa	!
2A\	-a	.	.	.	2c\	.
2G\	De-	1d	a-	.	2B-\	.
!LO:TX:t=P:problem:kreska pseudotaktowa	!	!	!	!	!	!
2F#X\	-i	.	.	.	2A/	.
=27-	=27-	=27-	=27-	=27-	=27-	=27-
2.G\	Pa-	2B-y\	-ve	0ryy	2G/	-tris.
!	!	!	!	!	!LO:TX:t=P:problem:kreska pseudotaktowa	!
.	.	2.d\	Fi-	.	2rF	.
!LO:TX:t=P:problem:kreska pseudotaktowa	!	!	!	!	!	!
4Fny\	.	.	.	.	.	.
!LO:TX:t=P:problem:kreska pseudotaktowa	!	!	!	!	!	!
1E-X	.	.	.	.	1G	a-
.	.	4d\	-li-	.	.	.
!	!	!LO:TX:t=P:problem:kreska pseudotaktowa	!	!	!	!
.	.	2c\	-a	.	.	.
=28-	=28-	=28-	=28-	=28-	=28-	=28-
!	!	!LO:TX:t=P:problem:kreska pseudotaktowa	!	!	!	!
!	!	!LO:SIC:v:custos c	!	!	!	!
2D/	-tris	1d	De-	0ryy	2D/	-ve
1G\	De-	.	.	.	4.B-\	Fi-
!	!	!	!	!	!LO:TX:t=P:problem:kreska pseudotaktowa	!
.	.	.	.	.	8B-\	-li-
!	!	!LO:LB:g=original	!	!	!	!
.	.	2c\	-i	.	2A\	-a
!LO:TX:t=P:problem:kreska pseudotaktowa	!	!	!	!	!	!
2F\	-i	2.f\	Pa-	.	2.d\	De-
=29-	=29-	=29-	=29-	=29-	=29-	=29-
!LO:TX:t=P:problem:kreska pseudotaktowa	!	!	!	!	!	!
!LO:SIC:v:custos A	!	!	!	!	!	!
1B-	Pa-	.	.	0ryy	.	.
.	.	4e-\	.	.	4c\	.
!	!	!LO:TX:t=P:problem:kreska pseudotaktowa	!	!	!	!
.	.	2d\	.	.	4B-\	.
.	.	.	.	.	8A\L	.
!	!	!	!	!	!LO:TX:t=P:problem:kreska pseudotaktowa	!
.	.	.	.	.	8G\J	.
!LO:LB:g=original	!	!	!	!	!	!
0A	.	2c#X\	-tris	.	2A\	-i
!	!	!LO:TX:t=P:problem:kreska pseudotaktowa	!	!	!	!
.	.	2r	.	.	1d\	Pa-
=30-	=30-	=30-	=30-	=30-	=30-	=30-
.	.	1A	a-	0ryy	.	.
!	!	!	!	!	!LO:TX:t=P:problem:kreska pseudotaktowa	!
.	.	.	.	.	2c#X\	.
!	!	!	!	!	!LO:TX:t=P:problem:kreska pseudotaktowa	!
2A,\	-tris,	2D,/	-ve	.	1d	-tris
!LO:TX:t=P:problem:kreska pseudotaktowa	!	!	!	!	!	!
2D/	a-	2.B-X\	Fi-	.	.	.
=31-	=31-	=31-	=31-	=31-	=31-	=31-
!	!	!	!	!	!LO:TX:t=P:problem:kreska pseudotaktowa	!
2GG,/	-ve	.	.	0ryy	1r	.
.	.	4B-\	-li-	.	.	.
!	!	!LO:TX:t=P:problem:kreska pseudotaktowa	!	!	!	!
2.E-X\	Fi-	2A\	-a	.	.	.
.	.	2G/	De-	.	2r	.
4E-\	-li-	.	.	.	.	.
!LO:TX:t=P:problem:kreska pseudotaktowa	!	!LO:TX:t=P:problem:kreska pseudotaktowa	!	!	!LO:TX:t=P:problem:kreska pseudotaktowa	!
2D\	-a	2F#X/	-i	.	2d\	A-
=32-	=32-	=32-	=32-	=32-	=32-	=32-
2C/	De-	2G/	Pa-	0ryy	1G	-ve
!LO:TX:t=P:problem:kreska pseudotaktowa	!	!	!	!	!	!
2BBn/	-i	2d\	.	.	.	.
4C/	Pa-	4e-X\	.	.	2.cny\	Fi-
4D/	.	4d\	.	.	.	.
4E-/	.	4cny\	.	.	.	.
!LO:TX:t=P:problem:kreska pseudotaktowa	!	!	!	!	!LO:TX:t=P:problem:kreska pseudotaktowa	!
!	!	!	!	!	!LO:SIC:custos B:v	!
4F/	.	8B-\L	.	.	4c\	-li-
!	!	!LO:TX:t=P:problem:kreska pseudotaktowa	!	!	!	!
.	.	8A\J	.	.	.	.
!	!	!	!	!	!LO:LB:g=original	!
=33-	=33-	=33-	=33-	=33-	=33-	=33-
2.G\	.	4B-\	.	0ryy	2.B-\	-a
.	.	4A\	.	.	.	.
.	.	4B-\	.	.	.	.
!	!	!LO:TX:t=P:problem:kreska pseudotaktowa	!	!	!	!
8F\L	.	4c\	.	.	8A\	De-
!	!	!	!	!	!LO:TX:t=P:problem:kreska pseudotaktowa	!
8E-\J	.	.	.	.	8G\	-i
0D	.	4d\	.	.	2A\	Pa-
.	.	4c\	.	.	.	.
.	.	4B-\	.	.	4B-\	.
!	!	!	!	!	!LO:TX:t=P:problem:kreska pseudotaktowa	!
.	.	8A\L	.	.	4c\	.
!	!	!LO:TX:t=P:problem:kreska pseudotaktowa	!	!	!	!
.	.	8G\J	.	.	.	.
=34-	=34-	=34-	=34-	=34-	=34-	=34-
.	.	1A	.	0ryy	1d	.
!	!	!	!	!	!LO:TX:t=P:problem:kreska pseudotaktowa	!
2GG,/	-tris	2Bn\	-tris	.	1d	-tris
!LO:TX:t=P:problem:kreska pseudotaktowa	!	!LO:TX:t=P:problem:kreska pseudotaktowa	!	!	!	!
2D\	a-	2r	.	.	.	.
=35-	=35-	=35-	=35-	=35-	=35-	=35-
2E-,\	-ve	0r	.	0ryy	2r	.
*	*ij	*	*	*	*	*
!	!	!	!	!	!LO:TX:t=P:problem:kreska pseudotaktowa	!
1G\	a-	.	.	.	2G/	a-
.	.	.	.	.	2A,\	-ve
*	*	*	*	*	*	*ij
!LO:TX:t=P:problem:kreska pseudotaktowa	!	!	!	!	!	!
2F\	-ve	.	.	.	1d\	a-
*	*Xij	*	*	*	*	*
=36-	=36-	=36-	=36-	=36-	=36-	=36-
!LO:TX:t=P:problem:kreska pseudotaktowa	!	!	!	!	!	!
1En	Ma-	2r	.	0ryy	.	.
!	!	!LO:TX:t=P:problem:kreska pseudotaktowa	!	!	!LO:TX:t=P:problem:kreska pseudotaktowa	!
.	.	2G/	a-	.	2c\	-ve
*	*	*	*	*	*	*Xij
!LO:TX:t=P:problem:kreska pseudotaktowa	!	!	!	!	!	!
1D	-ter	2A\	-ve	.	4B-\	Ma-
.	.	.	.	.	8A\L	.
.	.	.	.	.	8G\J	.
.	.	1d\	Ma-	.	2A/	.
=37-	=37-	=37-	=37-	=37-	=37-	=37-
!	!	!	!	!	!LO:TX:t=P:problem:kreska pseudotaktowa	!
2.E-y\	De-	.	.	0ryy	1G	-ter
.	.	1c\	-ter	.	.	.
!LO:TX:t=P:problem:kreska pseudotaktowa	!	!	!	!	!	!
4F\	-i	.	.	.	.	.
!	!	!	!	!	!LO:TX:t=P:problem:kreska pseudotaktowa	!
2.G\	Fi-	.	.	.	1r	.
!	!	!LO:TX:t=P:problem:kreska pseudotaktowa	!	!	!	!
.	.	2Bn\	De-	.	.	.
!LO:TX:t=P:problem:kreska pseudotaktowa	!	!	!	!	!	!
!LO:SIC:v:custos C	!	!	!	!	!	!
4GG/	-li-	.	.	.	.	.
!LO:LB:g=original	!	!	!	!	!	!
=38-	=38-	=38-	=38-	=38-	=38-	=38-
2C,/	-i	2c\	-i	0ryy	2G/	a-
!LO:TX:t=P:problem:kreska pseudotaktowa	!	!LO:TX:t=P:problem:kreska pseudotaktowa	!	!	!	!
2GG/	a-	2r	.	.	2B-,/	-ve
*	*	*	*	*	*	*ij
!	!	!LO:TX:t=P:problem:kreska pseudotaktowa	!	!	!	!
2AA,/	-ve	1r	.	.	2A/	a-
*	*ij	*	*	*	*	*
!	!	!	!	!	!LO:TX:t=P:problem:kreska pseudotaktowa	!
1C/	a-	.	.	.	2G/	-ve
*	*	*	*	*	*	*Xij
=39-	=39-	=39-	=39-	=39-	=39-	=39-
.	.	2r	.	0ryy	2Fny/	Ma-
!LO:TX:t=P:problem:kreska pseudotaktowa	!	!LO:TX:t=P:problem:kreska pseudotaktowa	!	!	!	!
!	!	!LO:SIC:v:custos A	!	!	!	!
2BB-y/	-ve	2G/	a-	.	2D,/	-ter
*	*Xij	*	*	*	*	*
!	!	!LO:LB:g=original	!	!	!	!
1AA	Ma-	2A\	-ve	.	1A	De-
.	.	1c\	Ma-	.	.	.
=40-	=40-	=40-	=40-	=40-	=40-	=40-
4GG/	.	.	.	0ryy	2D,/	-i
(<4AA/	.	.	.	.	.	.
!	!	!LO:TX:t=P:problem:kreska pseudotaktowa	!	!	!	!
4BB-/)	.	2B-y\	-ter	.	2G/	Ma-
!LO:TX:t=P:problem:kreska pseudotaktowa	!	!	!	!	!	!
4C/	.	.	.	.	.	.
4D\	.	2.A\	De-	.	(<2F/	.
4E-\	.	.	.	.	.	.
(>4F\	-ter	.	.	.	2D/)	-ter
!LO:TX:t=P:problem:kreska pseudotaktowa	!	!LO:TX:t=P:problem:kreska pseudotaktowa	!	!	!	!
4G\)	.	4B-\	.	.	.	.
=41-	=41-	=41-	=41-	=41-	=41-	=41-
!	!	!	!	!	!LO:TX:t=P:problem:kreska pseudotaktowa	!
2.A\	De-	1.c	.	0ryy	[<1A	De-
4G\	-i	.	.	.	.	.
2F#X\	Fi-	.	.	.	4A/]	.
.	.	.	.	.	4G/	-i
!LO:TX:t=P:problem:kreska pseudotaktowa	!	!	!	!	!	!
2G\	-li-	2B-\	.	.	1G/	Fi-
=42-	=42-	=42-	=42-	=42-	=42-	=42-
2D,/	-(us)	1A	.	1ryy	.	.
!LO:TX:t=P:problem:kreska pseudotaktowa	!	!	!	!	!	!
2D\	a-	.	.	.	2F#X/	-li-
!	!	!	!	!	!LO:TX:t=P:problem:kreska pseudotaktowa	!
!	!	!	!	!	!LO:SIC:custos g:v	!
2En,\	-ve	2G,/	-i	1ryy	1G	-(us)
*	*ij	*	*	*	*	*
!	!	!LO:TX:t=P:problem:kreska pseudotaktowa	!	!	!	!
1G\	a-	2G/	a-	.	.	.
!	!	!	!	!	!LO:LB:g=original	!
=43-	=43-	=43-	=43-	=43-	=43-	=43-
!	!	!	!	!	!LO:TX:t=P:problem:kreska pseudotaktowa	!
.	.	2A\	-ve	0ryy	0r	.
!LO:TX:t=P:problem:kreska pseudotaktowa	!	!	!	!	!	!
2Fny\	-ve	1d\	Ma-	.	.	.
*	*Xij	*	*	*	*	*
1En	Ma-	.	.	.	.	.
!	!	!LO:TX:t=P:problem:kreska pseudotaktowa	!	!	!	!
.	.	2c\	-ter	.	.	.
=44-	=44-	=44-	=44-	=44-	=44-	=44-
2D\	-ter	2B-\	De-	0ryy	2G/	a-
4D\	De-	1A\	.	.	2A/	-ve
!LO:TX:t=P:problem:kreska pseudotaktowa	!	!	!	!	!	!
4E-y\	.	.	.	.	.	.
!	!	!	!	!	!LO:TX:t=P:problem:kreska pseudotaktowa	!
4F\	.	.	.	.	1d	Ma-
4D\	.	.	.	.	.	.
1G\	.	4B-\	.	.	.	.
!	!	!LO:TX:t=P:problem:kreska pseudotaktowa	!	!	!	!
.	.	4c\	.	.	.	.
=45-	=45-	=45-	=45-	=45-	=45-	=45-
.	.	4d\	.	0ryy	2B-,\	-ter
.	.	4B-\	.	.	.	.
!LO:TX:t=P:problem:kreska pseudotaktowa	!	!	!	!	!	!
2E-X\	-i	1e-X\	.	.	4c\	De-
!	!	!	!	!	!LO:TX:t=P:problem:kreska pseudotaktowa	!
.	.	.	.	.	4B-\	.
1.F	Fi-	.	.	.	4A/	-i
.	.	.	.	.	8G/L	Fi-
.	.	.	.	.	8A/J	.
!	!	!LO:TX:t=P:problem:kreska pseudotaktowa	!	!	!	!
.	.	2d\	-i	.	1B-\	.
=46-	=46-	=46-	=46-	=46-	=46-	=46-
.	.	2.c\	Fi-	0ryy	.	.
!LO:TX:t=P:problem:kreska pseudotaktowa	!	!	!	!	!	!
!LO:SIC:v:custos B	!	!	!	!	!	!
!	!	!	!	!	!LO:TX:t=P:problem:kreska pseudotaktowa	!
2F\	-li-	.	.	.	2A\	-li-
.	.	4c\	-li-	.	.	.
!LO:LB:g=original	!	!	!	!	!	!
!	!	!LO:TX:t=P:problem:kreska pseudotaktowa	!	!	!	!
2BB-,/	-(us).	1d	-(us).	.	2B-,\	-(us),
!LO:TX:t=P:problem:kreska pseudotaktowa	!	!	!	!	!	!
2B-\	a-	.	.	.	2d\	a-
=47-	=47-	=47-	=47-	=47-	=47-	=47-
2G\	-ve	00r	.	0ryy	2B-,\	-ve
*	*ij	*	*	*	*	*ij
1B-\	a-	.	.	.	1d\	a-
.	.	.	.	.	.	.
!LO:TX:t=P:problem:kreska pseudotaktowa	!	!	!	!	!LO:TX:t=P:problem:kreska pseudotaktowa	!
2A\	-ve	.	.	.	2c\	-ve
*	*Xij	*	*	*	*	*Xij
=48-	=48-	=48-	=48-	=48-	=48-	=48-
1G	Spon-	.	.	0ryy	1B-	Spon-
2F\	-sa	.	.	.	2A,\	-sa
4D\	.	.	.	.	4Fny/	San-
!LO:TX:t=P:problem:kreska pseudotaktowa	!	!	!	!	!LO:TX:t=P:problem:kreska pseudotaktowa	!
4E-\	San-	.	.	.	4G/	.
=49-	=49-	=49-	=49-	=49-	=49-	=49-
!	!	!LO:TX:t=P:problem:kreska pseudotaktowa	!	!	!	!
4F\	.	00r	.	0ryy	2.A\	.
4G\	.	.	.	.	.	.
1A\	.	.	.	.	.	.
.	.	.	.	.	4B-\	.
.	.	.	.	.	4c\	.
.	.	.	.	.	4d\	.
!LO:TX:t=P:problem:kreska pseudotaktowa	!	!	!	!	!	!
2E-,\	-cti	.	.	.	2.en\	.
=50-	=50-	=50-	=50-	=50-	=50-	=50-
1F	Spi-	.	.	0ryy	.	.
.	.	.	.	.	4d,\	-cto
.	.	.	.	.	4d\	Spi-
!	!	!	!	!	!LO:TX:t=P:problem:kreska pseudotaktowa	!
.	.	.	.	.	4c\	.
1.G	-ri-	.	.	.	2Bn\	.
.	.	.	.	.	1c\	.
=51-	=51-	=51-	=51-	=51-	=51-	=51-
.	.	2r	.	0ryy	.	.
!	!	!LO:TX:t=P:problem:kreska pseudotaktowa	!	!	!LO:TX:t=P:problem:kreska pseudotaktowa	!
2G\	-tus.	2G/	a-	.	2B\	-ri-
!LO:TX:t=P:problem:kreska pseudotaktowa	!	!	!	!	!	!
1C	.	2E-,/	-ve	.	2c,\	-tus
*	*	*	*ij	*	*	*
.	.	2c\	a-	.	2e-y\	a-
=52-	=52-	=52-	=52-	=52-	=52-	=52-
0r	.	2A\	-ve	0ryy	2c,\	-ve
*	*	*	*	*	*	*ij
.	.	1c\	a-	.	1e-\	a-
.	.	.	.	.	.	.
!	!	!LO:TX:t=P:problem:kreska pseudotaktowa	!	!	!LO:TX:t=P:problem:kreska pseudotaktowa	!
!	!	!	!	!	!LO:SIC:v:custos c	!
.	.	2B-\	-ve	.	2d,\	-ve
*	*	*	*	*	*	*Xij
!	!	!	!	!	!LO:LB:g=original	!
=53-	=53-	=53-	=53-	=53-	=53-	=53-
!LO:TX:t=P:problem:kreska pseudotaktowa	!	!	!	!	!	!
1r	.	1A	Spon-	0ryy	1c	Spon-
!	!	!LO:TX:t=P:problem:kreska pseudotaktowa	!	!	!	!
2r	.	1G	-sa	.	2d\	-sa
!LO:TX:t=P:problem:kreska pseudotaktowa	!	!	!	!	!	!
2G\	a-	.	.	.	4B-y\	San-
!	!	!	!	!	!LO:TX:t=P:problem:kreska pseudotaktowa	!
.	.	.	.	.	4c\	.
=54-	=54-	=54-	=54-	=54-	=54-	=54-
2D,\	-ve	0r	.	0ryy	4d\	.
.	.	.	.	.	4c\	.
*	*ij	*	*	*	*	*
1G\	a-	.	.	.	2B-\	.
!	!	!	!	!	!LO:TX:t=P:problem:kreska pseudotaktowa	!
.	.	.	.	.	1A,	-cti
2F\	-ve	.	.	.	.	.
*	*Xij	*	*	*	*	*
=55-	=55-	=55-	=55-	=55-	=55-	=55-
!	!	!LO:TX:t=P:problem:kreska pseudotaktowa	!	!	!	!
1E-X	Spon-	1r	.	0ryy	2.G/	Spi-
.	.	.	.	.	4A/	.
!LO:TX:t=P:problem:kreska pseudotaktowa	!	!	!	!	!	!
1D	.	2r	.	.	2B-\	.
!	!	!LO:TX:t=P:problem:kreska pseudotaktowa	!	!	!LO:TX:t=P:problem:kreska pseudotaktowa	!
.	.	2d\	a-	.	2A\	-ri-
=56-	=56-	=56-	=56-	=56-	=56-	=56-
2GG/	-sa.	2B-,\	-ve	1ryy	2G,/	-tus
*	*	*	*ij	*	*	*
!LO:TX:t=P:problem:kreska pseudotaktowa	!	!	!	!	!	!
2r	.	1d\	a-	.	1f\	San-
!LO:TX:a:t=7	!	!	!	!	!	!
00r	.	.	.	1ryy	.	.
!	!	!LO:TX:t=P:problem:kreska pseudotaktowa	!	!	!LO:TX:t=P:problem:kreska pseudotaktowa	!
.	.	2c\	-ve	.	2e-\	.
*	*	*	*Xij	*	*	*
!	!	!LO:LB:g=original	!	!	!	!
=57-	=57-	=57-	=57-	=57-	=57-	=57-
!	!	!LO:TX:t=P:problem:kreska pseudotaktowa	!	!	!	!
.	.	1B-	Spon-	0ryy	1d	.
.	.	2A/	-sa	.	2c\	-cti
!	!	!LO:TX:t=P:problem:prawdopodobnie odtąd, do połowy t. 127, brak fragmentu partii	!	!	!	!
.	.	2ryy	.	.	4A\	Spi-
!	!	!	!	!	!LO:TX:t=P:problem:kreska pseudotaktowa	!
.	.	.	.	.	4B-\	.
=58-	=58-	=58-	=58-	=58-	=58-	=58-
.	.	0ryy	.	0ryy	4c\	.
.	.	.	.	.	4d\	.
.	.	.	.	.	4e-\	.
!	!	!	!	!	!LO:TX:t=P:problem:kreska pseudotaktowa	!
.	.	.	.	.	4d\	.
0r	.	.	.	.	2c\	.
.	.	.	.	.	1B-\	.
=59-	=59-	=59-	=59-	=59-	=59-	=59-
.	.	0ryy	.	0ryy	.	.
!	!	!	!	!	!LO:TX:t=P:problem:kreska pseudotaktowa	!
.	.	.	.	.	2A\	.
!LO:TX:t=P:problem:kreska pseudotaktowa	!	!	!	!	!	!
!LO:SIC:v:t=custos F	!	!	!	!	!	!
1r	.	.	.	.	2.G/	.
.	.	.	.	.	4G/	-ri-
!LO:PB:g=original	!	!	!	!	!	!
=60-	=60-	=60-	=60-	=60-	=60-	=60-
2r	.	0ryy	.	0ryy	2A,\	-tus
!LO:TX:t=P:problem:kreska pseudotaktowa	!	!	!	!	!LO:TX:t=P:problem:kreska pseudotaktowa	!
2F\	a-	.	.	.	2c\	a-
2D\	-ve	.	.	.	2d,\	-ve
*	*ij	*	*	*	*	*ij
!	!	!	!	!	!LO:TX:t=P:problem:kreska pseudotaktowa	!
2F\	a-	.	.	.	2c\	a-
=61-	=61-	=61-	=61-	=61-	=61-	=61-
!LO:TX:t=P:problem:kreska pseudotaktowa	!	!	!	!	!	!
1C,	-ve	0ryy	.	0ryy	2c,\	-ve
*	*Xij	*	*	*	*	*Xij
!	!	!	!	!	!LO:TX:t=P:problem:kreska pseudotaktowa	!
.	.	.	.	.	2e-X\	a-
!LO:TX:t=P:problem:kreska pseudotaktowa	!	!	!	!	!	!
1r	.	.	.	.	2f\	-ve
*	*	*	*	*	*	*ij
.	.	.	.	.	2e-\	a-
=62-	=62-	=62-	=62-	=62-	=62-	=62-
!	!	!	!	!	!LO:TX:t=P:problem:kreska pseudotaktowa	!
!	!	!	!	!	!LO:TX:b:i:t=Vertat Cito.	!
!	!	!	!	!	!LO:SIC:v:custos d	!
2r	.	0ryy	.	0ryy	1d,	-ve
*	*	*	*	*	*	*Xij
!LO:TX:t=P:problem:kreska pseudotaktowa	!	!	!	!	!	!
2G\	a-	.	.	.	.	.
!	!	!	!	!	!LO:PB:g=original	!
2E-\	-ve	.	.	.	2r	.
*	*ij	*	*	*	*	*
!	!	!	!	!	!LO:TX:t=P:problem:kreska pseudotaktowa	!
1G\	a-	.	.	.	2d\	a-
=63-	=63-	=63-	=63-	=63-	=63-	=63-
.	.	0ryy	.	0ryy	2B-,\	-ve
*	*	*	*	*	*	*ij
!LO:TX:t=P:problem:kreska pseudotaktowa	!	!	!	!	!	!
2F\	-ve	.	.	.	1d\	a-
*	*Xij	*	*	*	*	*
1E-	Spon-	.	.	.	.	.
.	.	.	.	.	2c,\	-ve
*	*	*	*	*	*	*Xij
=64-	=64-	=64-	=64-	=64-	=64-	=64-
2D,\	-sa	2ryy	.	0ryy	2B-\	Spon-
!	!	!	!	!	!LO:TX:t=P:problem:kreska pseudotaktowa	!
4D\	San-	4Fny/	San-	.	2A\	-sa
!LO:TX:t=P:problem:kreska pseudotaktowa	!	!LO:TX:t=P:problem:kreska pseudotaktowa	!	!	!	!
4E-\	.	4G/	.	.	.	.
4F\	.	2.A\	.	.	4A\	.
4G\	.	.	.	.	4B-\	.
1A\	.	.	.	.	4c\	San-
!	!	!LO:TX:t=P:problem:kreska pseudotaktowa	!	!	!	!
.	.	4B-\	.	.	4d\	.
=65-	=65-	=65-	=65-	=65-	=65-	=65-
.	.	4c\	.	0ryy	4e-\	.
.	.	4A\	.	.	4c\	.
!LO:TX:t=P:problem:kreska pseudotaktowa	!	!LO:TX:t=P:problem:kreska pseudotaktowa	!	!	!LO:TX:t=P:problem:kreska pseudotaktowa	!
2F\	-cti	2d\	.	.	2f\	.
!	!	!LO:N:xstem:cue	!	!	!LO:N:xstem:cue	!
(>2.B-\	San-	4d	.	.	4f	.
.	.	4c\	.	.	4e-\	.
.	.	1B-\	.	.	1d\	.
4A\)	.	.	.	.	.	.
=66-	=66-	=66-	=66-	=66-	=66-	=66-
2G\	.	.	.	0ryy	.	.
!LO:TX:t=P:problem:kreska pseudotaktowa	!	!LO:TX:t=P:problem:kreska pseudotaktowa	!	!	!LO:TX:t=P:problem:kreska pseudotaktowa	!
2G,\	-cti	2B-,\	-cti	.	2d\	-cti
*	*	*	*ij	*	*	*
1.D	Spi-	2A\	San-	.	1.d	Spi-
!	!	!LO:TX:t=P:problem:kreska pseudotaktowa	!	!	!	!
.	.	2B-,\	-cti	.	.	.
*	*	*	*Xij	*	*	*
=67-	=67-	=67-	=67-	=67-	=67-	=67-
.	.	2.A\	Spi-	0ryy	.	.
!LO:TX:t=P:problem:kreska pseudotaktowa	!	!	!	!	!LO:TX:t=P:problem:kreska pseudotaktowa	!
2D/	-ri-	.	.	.	2d\	-ri-
.	.	4A\	-ri-	.	.	.
2GG,/	-t(us).	2Bn,\	-tus	.	2d\	-tus
1G\	a-	1B\	a-	.	1d\	a-
=68-	=68-	=68-	=68-	=68-	=68-	=68-
.	.	.	.	1ryy	.	.
!LO:TX:t=P:problem:kreska pseudotaktowa	!	!LO:TX:t=P:problem:kreska pseudotaktowa	!	!	!LO:TX:t=P:problem:kreska pseudotaktowa	!
2G\	-ve	2Bny\	-ve	.	2d\	-ve
!LO:TX:t=P:problem:kreska pseudotaktowa	!	!	!	!	!	!
*	*	*	*ij	*	*	*ij
!LO:SIC:v:custos G	!	!	!	!	!	!
1C	a-	1c	a-	1ryy	1e-X	a-
!LO:LB:g=original	!	!	!	!	!	!
=69-	=69-	=69-	=69-	=69-	=69-	=69-
2G,\	-ve	2B-y,\	-ve	0ryy	2d,\	-ve
*	*	*	*Xij	*	*	*Xij
*	*ij	*	*	*	*	*
1D\	a-	1A\	a-	.	1d\	a-
.	.	.	.	.	.	.
!	!	!LO:TX:t=P:problem:kreska pseudotaktowa	!	!	!LO:TX:t=P:problem:kreska pseudotaktowa	!
2D/	-ve	2d\	-ve	.	2d\	-ve
*	*Xij	*	*	*	*	*
=70-	=70-	=70-	=70-	=70-	=70-	=70-
0AA	a-	2e-\	.	0ryy	2c\	a-
*	*	*	*ij	*	*	*
.	.	[<1A\	a-	.	2.d\	.
.	.	.	.	.	.	.
.	.	.	.	.	8c#X\L	.
.	.	.	.	.	8B-\J	.
!	!	!	!	!	!LO:TX:t=P:problem:kreska pseudotaktowa	!
.	.	1A]	.	.	2c#X\	.
=71-	=71-	=71-	=71-	=71-	=71-	=71-
!LO:TX:t=P:problem:kreska pseudotaktowa	!	!	!	!	!	!
1D	-ve.	.	.	0ryy	2d,\	-ve
!	!	!LO:TX:t=P:problem:kreska pseudotaktowa	!	!	!	!
.	.	2A/	-ve	.	2d\	To-
*	*	*	*Xij	*	*	*
0r	.	2r	.	.	4B-\	-ti-
.	.	.	.	.	4G/	-us
!	!	!LO:TX:t=P:problem:kreska pseudotaktowa	!	!	!	!
.	.	2G/	to-	.	4d\	Tri-
!	!	!	!	!	!LO:TX:t=P:problem:kreska pseudotaktowa	!
.	.	.	.	.	4e-\	-ni-
=72-	=72-	=72-	=72-	=72-	=72-	=72-
.	.	4F/	-ti-	0ryy	4f\	.
.	.	4D/	-us	.	8e-\L	-ta-
.	.	.	.	.	8f\J	.
.	.	4A\	Tri-	.	4cny\	.
!	!	!LO:TX:t=P:problem:kreska pseudotaktowa	!	!	!LO:TX:t=P:problem:kreska pseudotaktowa	!
!	!	!	!	!	!LO:SIC:v:custos e	!
.	.	4B-\	-ni-	.	4d\	.
!	!	!	!	!	!LO:LB:g=original	!
!LO:TX:t=P:problem:kreska pseudotaktowa	!	!	!	!	!	!
1r	.	4c\	-ta-	.	1e-	.
.	.	8B-\L	.	.	.	.
.	.	8c\J	.	.	.	.
.	.	4G/	.	.	.	.
!	!	!LO:TX:t=P:problem:kreska pseudotaktowa	!	!	!	!
.	.	4A/	.	.	.	.
=73-	=73-	=73-	=73-	=73-	=73-	=73-
!	!	!LO:TX:t=P:problem:kreska pseudotaktowa	!	!	!	!
!	!	!LO:SIC:v:custos A	!	!	!	!
!	!	!	!	!	!LO:TX:t=P:problem:kreska pseudotaktowa	!
2r	.	1B-	.	0ryy	1d	-tis
!LO:TX:t=P:problem:kreska pseudotaktowa	!	!	!	!	!	!
2G\	To-	.	.	.	.	.
!	!	!LO:LB:g=original	!	!	!	!
!	!	!LO:TX:t=P:problem:kreska pseudotaktowa	!	!	!	!
4F\	-ti-	1A	-tis	.	0r	.
4D,\	-us	.	.	.	.	.
4A\	Tri-	.	.	.	.	.
!LO:TX:t=P:problem:kreska pseudotaktowa	!	!	!	!	!	!
4B-\	-ni-	.	.	.	.	.
=74-	=74-	=74-	=74-	=74-	=74-	=74-
4c\	-ta-	1r	.	0ryy	.	.
8B-\L	.	.	.	.	.	.
8c\J	.	.	.	.	.	.
4G\	.	.	.	.	.	.
!LO:TX:t=P:problem:kreska pseudotaktowa	!	!	!	!	!	!
4A\	.	.	.	.	.	.
!	!	!	!	!	!LO:TX:t=P:problem:kreska pseudotaktowa	!
2.B-\	.	2r	.	.	1r	.
!	!	!LO:TX:t=P:problem:kreska pseudotaktowa	!	!	!	!
.	.	2d\	To-	.	.	.
4A\	.	.	.	.	.	.
=75-	=75-	=75-	=75-	=75-	=75-	=75-
2.G\	.	4B-\	-ti-	0ryy	2rF	.
.	.	4G/	-us	.	.	.
!	!	!	!	!	!LO:TX:t=P:problem:kreska pseudotaktowa	!
.	.	4d\	Tri-	.	2G/	to-
!	!	!LO:TX:t=P:problem:kreska pseudotaktowa	!	!	!	!
8F\L	.	4e-\	.	.	.	.
!LO:TX:t=P:problem:kreska pseudotaktowa	!	!	!	!	!	!
8E-\J	.	.	.	.	.	.
4D\	.	4f\	-ni-	.	4F/	-ti-
4E-\	.	8e-\L	-ta-	.	4D/	-us
.	.	8f\J	.	.	.	.
4F\	.	4c\	.	.	4A\	Tri-
!	!	!LO:TX:t=P:problem:kreska pseudotaktowa	!	!	!LO:TX:t=P:problem:kreska pseudotaktowa	!
8E-\L	.	4d\	.	.	4B-\	.
!LO:TX:t=P:problem:kreska pseudotaktowa	!	!	!	!	!	!
8D\J	.	.	.	.	.	.
=76-	=76-	=76-	=76-	=76-	=76-	=76-
4C/	.	2e-\	.	0ryy	4c\	-ni-
4D/	.	.	.	.	8B-\L	-ta-
.	.	.	.	.	8A\J	.
!	!	!	!	!	!LO:TX:t=P:problem:kreska pseudotaktowa	!
4E-X/	.	2B-\	.	.	2G/	.
!LO:TX:t=P:problem:kreska pseudotaktowa	!	!	!	!	!	!
4BB-/	.	.	.	.	.	.
2C/	.	2e-\	.	.	2A,\	-tis
!LO:TX:t=P:problem:kreska pseudotaktowa	!	!	!	!	!	!
2D/	.	2d\	.	.	4.d\	no-
!	!	!	!	!	!LO:TX:t=P:problem:kreska pseudotaktowa	!
.	.	.	.	.	8c\	-bi-
=77-	=77-	=77-	=77-	=77-	=77-	=77-
!	!	!LO:TX:t=P:problem:kreska pseudotaktowa	!	!	!	!
2GG/	-tis	1d	-tis	0ryy	2B-\	-le
!	!	!	!	!	!LO:TX:t=P:problem:kreska pseudotaktowa	!
4.G\	no-	.	.	.	2r	.
!LO:TX:t=P:problem:kreska pseudotaktowa	!	!	!	!	!	!
!LO:SIC:v:custos E-	!	!	!	!	!	!
8F\	-bi-	.	.	.	.	.
!LO:LB:g=original	!	!	!	!	!	!
2E-\	-le	4.e-\	no-	.	2rc	.
.	.	8d\	-bi-	.	.	.
!	!	!LO:TX:t=P:problem:kreska pseudotaktowa	!	!	!	!
4.E-\	no-	2c\	-le	.	4.e-X\	no-
!LO:TX:t=P:problem:kreska pseudotaktowa	!	!	!	!	!LO:TX:t=P:problem:kreska pseudotaktowa	!
8E-\	-bi-	.	.	.	8d\	-bi-
=78-	=78-	=78-	=78-	=78-	=78-	=78-
*	*	*	*ij	*	*	*
2F,\	-le	4.f\	no-	0ryy	2c\	-le
.	.	8e-\	-bi-	.	.	.
!	!	!	!	!	!LO:TX:t=P:problem:kreska pseudotaktowa	!
2BB-/	Tri-	4d\	-le	.	2d\	Tri-
*	*	*	*Xij	*	*	*
!	!	!LO:TX:t=P:problem:kreska pseudotaktowa	!	!	!	!
.	.	4B-\	Tri-	.	.	.
2.F\	-cli-	2.B-\	-cli-	.	2.c\	-cli-
!LO:TX:t=P:problem:kreska pseudotaktowa	!	!	!	!	!	!
4FF/	-ni-	4A\	-ni-	.	4c\	-ni-
=79-	=79-	=79-	=79-	=79-	=79-	=79-
!	!	!LO:TX:t=P:problem:kreska pseudotaktowa	!	!	!	!
2BB-,/	-um	1B-	-um	0ryy	2d\	-um
!LO:TX:t=P:problem:kreska pseudotaktowa	!	!	!	!	!LO:TX:t=P:problem:kreska pseudotaktowa	!
2BB-/	to-	.	.	.	2r	.
4AA/	-ti-	0r	.	.	2rF	.
4FF,/	-us	.	.	.	.	.
4AA/	Tri-	.	.	.	2F/	to-
!LO:TX:t=P:problem:kreska pseudotaktowa	!	!	!	!	!	!
4BB-/	-ni-	.	.	.	.	.
=80-	=80-	=80-	=80-	=80-	=80-	=80-
4C/	-ta-	.	.	0ryy	4E-/	-ti-
8BB-/L	.	.	.	.	4C/	-us
8C/J	.	.	.	.	.	.
4GG/	.	.	.	.	4E-/	Tri-
!LO:TX:t=P:problem:kreska pseudotaktowa	!	!	!	!	!LO:TX:t=P:problem:kreska pseudotaktowa	!
4AA/	.	.	.	.	4F/	.
!	!	!LO:TX:t=P:problem:kreska pseudotaktowa	!	!	!	!
2.BB-/	.	1r	.	.	2G/	-ni-
.	.	.	.	.	4D/	-ta-
!	!	!	!	!	!LO:TX:t=P:problem:kreska pseudotaktowa	!
8AA/L	.	.	.	.	4d\	.
8GG/J	.	.	.	.	.	.
=81-	=81-	=81-	=81-	=81-	=81-	=81-
1AA	.	2r	.	0ryy	(>2.d\	.
!	!	!LO:TX:t=P:problem:kreska pseudotaktowa	!	!	!	!
.	.	2A/	to-	.	.	.
.	.	.	.	.	4c#X\)	.
!	!	!	!	!	!LO:TX:t=P:problem:kreska pseudotaktowa	!
2D\	-tis	4F/	-ti-	.	1d	-tis
.	.	4D/	-us	.	.	.
!LO:TX:t=P:problem:kreska pseudotaktowa	!	!	!	!	!	!
2D\	to-	4G/	Tri-	.	.	.
!	!	!LO:TX:t=P:problem:kreska pseudotaktowa	!	!	!	!
.	.	4A/	.	.	.	.
=82-	=82-	=82-	=82-	=82-	=82-	=82-
4BB-/	-ti-	4B-\	-ni-	0ryy	0r	.
4GG,/	-us	8A\L	-ta-	.	.	.
.	.	8B-\J	.	.	.	.
4D\	Tri-	4F/	.	.	.	.
!LO:TX:t=P:problem:kreska pseudotaktowa	!	!LO:TX:t=P:problem:kreska pseudotaktowa	!	!	!	!
4E-\	.	4G/	.	.	.	.
4F\	-ni-	4A\	.	.	.	.
8E-\L	-ta-	4B-\	.	.	.	.
8F\J	.	.	.	.	.	.
4C/	.	4c\	.	.	.	.
!LO:TX:t=P:problem:kreska pseudotaktowa	!	!	!	!	!	!
4D/	.	8B-\L	.	.	.	.
!	!	!LO:TX:t=P:problem:kreska pseudotaktowa	!	!	!	!
.	.	8c\J	.	.	.	.
=83-	=83-	=83-	=83-	=83-	=83-	=83-
!	!	!	!	!	!LO:TX:t=P:problem:kreska pseudotaktowa	!
4E-\	.	4G/	.	1ryy	1r	.
4F\	.	4A/	.	.	.	.
2G\	.	4B-\	.	.	.	.
.	.	8c\L	.	.	.	.
!	!	!LO:TX:t=P:problem:kreska pseudotaktowa	!	!	!	!
.	.	8B-\J	.	.	.	.
!	!	!LO:LB:g=original	!	!	!LO:LB:g=original	!
!LO:TX:t=P:problem:kreska pseudotaktowa	!	!	!	!	!	!
!LO:SIC:v:t=custos GG	!	!	!	!	!	!
1D	.	1A,	.	1ryy	2r	.
!	!	!	!	!	!LO:TX:t=P:problem:kreska pseudotaktowa	!
.	.	.	.	.	2d\	to-
!LO:LB:g=original	!	!	!	!	!	!
=84-	=84-	=84-	=84-	=84-	=84-	=84-
2GG,/	-tis	2G,/	-tis	0ryy	4B-\	-ti-
.	.	.	.	.	4G/	-us
!LO:TX:t=P:problem:kreska pseudotaktowa	!	!LO:TX:t=P:problem:kreska pseudotaktowa	!	!	!	!
2G\	to-	2B-\	to-	.	4d\	Tri-
!	!	!	!	!	!LO:TX:t=P:problem:kreska pseudotaktowa	!
.	.	.	.	.	4e-\	-ni-
4F\	-ti-	4A/	-ti-	.	4f\	-ta-
4D\	-us	4F/	-us	.	8e-\L	.
.	.	.	.	.	8f\J	.
4G\	Tri-	4A/	Tri-	.	4cny\	.
!	!	!LO:TX:t=P:problem:kreska pseudotaktowa	!	!	!LO:TX:t=P:problem:kreska pseudotaktowa	!
8F\L	-ni-	4B-/	.	.	4d\	.
!LO:TX:t=P:problem:kreska pseudotaktowa	!	!	!	!	!	!
8E-\J	.	.	.	.	.	.
=85-	=85-	=85-	=85-	=85-	=85-	=85-
4C/	-ta-	4c\	-ni-	0ryy	4e-X\	.
4D/	.	8B-\L	-ta-	.	8d\L	.
.	.	8c\J	.	.	8e-\J	.
4E-X\	.	4G/	.	.	4B-\	.
!	!	!LO:TX:t=P:problem:kreska pseudotaktowa	!	!	!LO:TX:t=P:problem:kreska pseudotaktowa	!
8D\L	.	4A/	.	.	4c\	.
!LO:TX:t=P:problem:kreska pseudotaktowa	!	!	!	!	!	!
8E-\J	.	.	.	.	.	.
4BB-/	.	4B-\	.	.	4d\	.
4C/	.	8A\L	.	.	4A\	.
.	.	8B-\J	.	.	.	.
!LO:TX:t=P:problem:kreska pseudotaktowa	!	!LO:TX:t=P:problem:kreska pseudotaktowa	!	!	!	!
2D/	.	2F/	.	.	1d\	.
=86-	=86-	=86-	=86-	=86-	=86-	=86-
1E-X	.	4G/	.	0ryy	.	.
.	.	4A/	.	.	.	.
.	.	4B-/	.	.	2c\	.
.	.	8A/L	.	.	.	.
!	!	!LO:TX:t=P:problem:kreska pseudotaktowa	!	!	!	!
.	.	8G/J	.	.	.	.
!	!	!	!	!	!LO:TX:t=P:problem:kreska pseudotaktowa	!
1D	.	2A,/	-tis	.	1d	-tis
!	!	!LO:TX:t=P:problem:kreska pseudotaktowa	!	!	!	!
.	.	2d\	to-	.	.	.
=87-	=87-	=87-	=87-	=87-	=87-	=87-
!LO:TX:t=P:problem:kreska pseudotaktowa	!	!	!	!	!	!
1GG,	-tis.	4B-\	-ti-	0ryy	2rF	.
.	.	4G\	-us	.	.	.
!	!	!	!	!	!LO:TX:t=P:problem:kreska pseudotaktowa	!
.	.	4d\	Tri-	.	2G/	to-
!	!	!LO:TX:t=P:problem:kreska pseudotaktowa	!	!	!	!
.	.	4e-\	-ni-	.	.	.
!LO:TX:t=P:problem:kreska pseudotaktowa	!	!	!	!	!	!
0r	.	4f\	-ta-	.	4F/	-ti-
.	.	8e-\L	.	.	4D/	-us
.	.	8f\J	.	.	.	.
.	.	4c\	.	.	4A\	.
!	!	!LO:TX:t=P:problem:kreska pseudotaktowa	!	!	!LO:TX:t=P:problem:kreska pseudotaktowa	!
.	.	4d\	.	.	4B-\	Tri-
=88-	=88-	=88-	=88-	=88-	=88-	=88-
!	!	!LO:TX:t=P:problem:kreska pseudotaktowa	!	!	!	!
.	.	1e-X	.	1ryy	4c\	-ni-
.	.	.	.	.	8B-\L	-ta-
.	.	.	.	.	8c\J	.
.	.	.	.	.	4G/	.
.	.	.	.	.	4A/	.
!	!	!LO:TX:t=P:problem:kreska pseudotaktowa	!	!	!	!
2r	.	1d	-tis.	1ryy	1B-	.
!LO:TX:t=P:problem:kreska pseudotaktowa	!	!	!	!	!	!
2G\	to-	.	.	.	.	.
=89-	=89-	=89-	=89-	=89-	=89-	=89-
!	!	!	!	!	!LO:TX:t=P:problem:kreska pseudotaktowa	!
4F\	-ti-	0r	.	0ryy	1A	-tis
4D\	-us	.	.	.	.	.
4A\	Tri-	.	.	.	.	.
!LO:TX:t=P:problem:kreska pseudotaktowa	!	!	!	!	!	!
4B-\	.	.	.	.	.	.
!	!	!	!	!	!LO:TX:t=P:problem:kreska pseudotaktowa	!
4c\	-ni-	.	.	.	1r	.
8B-\L	-ta-	.	.	.	.	.
8c\J	.	.	.	.	.	.
4G\	.	.	.	.	.	.
!LO:TX:t=P:problem:kreska pseudotaktowa	!	!	!	!	!	!
4A\	.	.	.	.	.	.
=90-	=90-	=90-	=90-	=90-	=90-	=90-
!	!	!LO:TX:b:i:t=Vertat	!	!	!	!
!	!	!LO:TX:t=P:problem:kreska pseudotaktowa	!	!	!	!
!	!	!LO:SIC:v:custos G	!	!	!	!
2.B-\	.	1r	.	0ryy	2r	.
!	!	!	!	!	!LO:TX:t=P:problem:kreska pseudotaktowa	!
.	.	.	.	.	2d\	to-
!LO:TX:t=P:problem:kreska pseudotaktowa	!	!	!	!	!	!
4A\	.	.	.	.	.	.
!	!	!LO:PB:g=original	!	!	!	!
1G	-tis	2r	.	.	4B-\	-ti-
.	.	.	.	.	4G/	-us
!	!	!LO:TX:t=P:problem:kreska pseudotaktowa	!	!	!	!
.	.	2G/	to-	.	4d\	Tri-
!	!	!	!	!	!LO:TX:t=P:problem:kreska pseudotaktowa	!
.	.	.	.	.	4e-\	.
=91-	=91-	=91-	=91-	=91-	=91-	=91-
2D,/	.	4F/	-ti-	0ryy	4f\	-ni-
.	.	4D/	-us	.	8e-\L	-ta-
.	.	.	.	.	8d\J	.
4D/	no-	4A\	Tri-	.	4c\	.
!LO:TX:t=P:problem:kreska pseudotaktowa	!	!	!	!	!	!
!LO:SIC:v:custos C	!	!	!	!	!	!
!	!	!LO:TX:t=P:problem:kreska pseudotaktowa	!	!	!LO:TX:t=P:problem:kreska pseudotaktowa	!
4D/	-bi-	4B-\	.	.	4d\	.
!LO:LB:g=original	!	!	!	!	!	!
!	!	!	!	!	!LO:TX:a:t=P:problem:♭ above	!
4C/	-le	4c\	-ni-	.	2e-X\	-tis
4D/	.	8B-\L	-ta-	.	.	.
.	.	8A\J	.	.	.	.
4E-X\	.	4G/	.	.	4e-\	no-
!LO:TX:t=P:problem:kreska pseudotaktowa	!	!LO:TX:t=P:problem:kreska pseudotaktowa	!	!	!LO:TX:t=P:problem:kreska pseudotaktowa	!
!	!	!	!	!	!LO:SIC:v=custos d	!
4F\	.	4A/	.	.	4e-\	-bi-
!	!	!	!	!	!LO:LB:g=original	!
=92-	=92-	=92-	=92-	=92-	=92-	=92-
2G\	.	4B-\	.	0ryy	2d\	-le
.	.	4G/	.	.	.	.
!	!	!	!	!	!LO:TX:t=P:problem:kreska pseudotaktowa	!
2C/	Tri-	1c\	.	.	2e-\	Tri-
2.G\	-cli-	.	.	.	2.d\	-cli-
!LO:TX:t=P:problem:kreska pseudotaktowa	!	!LO:TX:t=P:problem:kreska pseudotaktowa	!	!	!	!
.	.	2Bn\	.	.	.	.
4GG/	-ni-	.	.	.	4d\	-ni-
=93-	=93-	=93-	=93-	=93-	=93-	=93-
!	!	!	!	!	!LO:TX:t=P:problem:kreska pseudotaktowa	!
2C/	-um	2c\	.	0ryy	1c	-um
!	!	!LO:TX:t=P:problem:kreska pseudotaktowa	!	!	!	!
4.C/	no-	2G,/	-tis	.	.	.
!LO:TX:t=P:problem:kreska pseudotaktowa	!	!	!	!	!	!
8BB-/	-bi-	.	.	.	.	.
2AA,/	-le	4.A/	no-	.	4.c\	no-
.	.	8G/	-bi-	.	8B-\	-bi-
*	*ij	*	*	*	*	*
!	!	!LO:TX:t=P:problem:kreska pseudotaktowa	!	!	!LO:TX:t=P:problem:kreska pseudotaktowa	!
4.D/	no-	2F,/	-le	.	2A/	-le
!LO:TX:t=P:problem:kreska pseudotaktowa	!	!	!	!	!	!
8C/	-bi-	.	.	.	.	.
=94-	=94-	=94-	=94-	=94-	=94-	=94-
*	*	*	*ij	*	*	*ij
2BB-,/	-le	4.B-y\	no-	0ryy	4.d\	no-
*	*Xij	*	*	*	*	*
.	.	8A\	-bi-	.	8c\	-bi-
!	!	!	!	!	!LO:TX:t=P:problem:kreska pseudotaktowa	!
4.E-X\	no-	2G/	-le	.	2B-\	-le
*	*	*	*Xij	*	*	*Xij
!LO:TX:t=P:problem:kreska pseudotaktowa	!	!	!	!	!	!
8D\	-bi-	.	.	.	.	.
2C/	-le	4.c\	no-	.	4.e-X\	no-
.	.	8c\	-bi-	.	8e-\	-bi-
!LO:TX:t=P:problem:kreska pseudotaktowa	!	!	!	!	!	!
2BBn/	Tri-	4.d\	-le	.	4d\	-le
!	!	!	!	!	!LO:TX:t=P:problem:kreska pseudotaktowa	!
.	.	.	.	.	[<4d\	No-
!	!	!LO:TX:t=P:problem:kreska pseudotaktowa	!	!	!	!
.	.	8d\	.	.	.	.
=95-	=95-	=95-	=95-	=95-	=95-	=95-
!	!	!	!	!	!LO:N:xstem:cue	!
1C	-cli-	2.e-X\	Tri-	0ryy	4d]	.
.	.	.	.	.	8c\L	.
.	.	.	.	.	8B-\J	.
.	.	.	.	.	1c\	.
.	.	4e-\	-cli-	.	.	.
!LO:TX:t=P:problem:kreska pseudotaktowa	!	!	!	!	!	!
[<0D	.	2A,/	-ni-	.	.	.
!	!	!	!	!	!LO:TX:t=P:problem:kreska pseudotaktowa	!
.	.	4d\	-um	.	2B-\	-bi-
!	!	!LO:TX:t=P:problem:kreska pseudotaktowa	!	!	!	!
.	.	4d\	no-	.	.	.
=96-	=96-	=96-	=96-	=96-	=96-	=96-
.	.	2c\	-bi-	0ryy	2A,/	-le
.	.	2B-\	-le	.	2G/	Tri-
1.D]	.	2A/	Tri-	.	2F#X/	-cli-
!	!	!LO:TX:t=P:problem:kreska pseudotaktowa	!	!	!	!
.	.	2G/	-cli-	.	4B-\	.
.	.	.	.	.	8A\L	.
!	!	!	!	!	!LO:TX:t=P:problem:kreska pseudotaktowa	!
.	.	.	.	.	8G\J	.
=97-	=97-	=97-	=97-	=97-	=97-	=97-
.	.	2.d\	.	1ryy	2.A/	.
2D/	-ni-	.	.	.	.	.
.	.	4c\	-ni-	.	4A/	-ni-
0GG;>	-um:	0Bn;>	-um.	0ryy	0G;>	-um.
==	==	==	==	==	==	==
*-	*-	*-	*-	*-	*-	*-
!!!system-decoration: [(s1,s2,s3,s4)]
!!!RDF**kern: > = above
!!!RDF**kern: < = below
!!!EED: Antoni Szymański
!!!EST: 2021-03-18
!!!AIN: 1 alto 1 bass 2 tenor
!!!ENC: Mateusz Solarz
!!!END: 2021-03-05
